assets/images/vector/icons/draw_compass_icon.svg

<svg fill="none" height="60" viewBox="0 0 52 60" width="52" xmlns="http://www.w3.org/2000/svg"><g stroke="#111" stroke-linecap="round" stroke-linejoin="round" stroke-width="10"><path d="m25.834 5v4.16667"/><path d="m22.65 21.6899-17.65 32.4767"/><path d="m40.7793 43.3333 5.8867 10.8333"/><path d="m29.0176 21.6899 7.96 14.6467"/><path d="m25.8327 22.5001c3.6819 0 6.6666-2.9848 6.6666-6.6667s-2.9847-6.66665-6.6666-6.66665-6.6667 2.98475-6.6667 6.66665 2.9848 6.6667 6.6667 6.6667z"/><path d="m42.4993 32.1633c-4.2366 4.3234-10.1366 7.0034-16.6666 7.0034s-12.4334-2.6834-16.66668-7.0034"/></g></svg>

<svg width="52" height="60" viewBox="0 0 52 60" fill="none" xmlns="http://www.w3.org/2000/svg">
<path d="M25.834 5V9.16667" stroke="#111111" stroke-width="10" stroke-linecap="round" stroke-linejoin="round"/>
<path d="M22.65 21.6899L5 54.1666" stroke="#111111" stroke-width="10" stroke-linecap="round" stroke-linejoin="round"/>
<path d="M40.7793 43.3333L46.666 54.1666" stroke="#111111" stroke-width="10" stroke-linecap="round" stroke-linejoin="round"/>
<path d="M29.0176 21.6899L36.9776 36.3366" stroke="#111111" stroke-width="10" stroke-linecap="round" stroke-linejoin="round"/>
<path d="M25.8327 22.5001C29.5146 22.5001 32.4993 19.5153 32.4993 15.8334C32.4993 12.1515 29.5146 9.16675 25.8327 9.16675C22.1508 9.16675 19.166 12.1515 19.166 15.8334C19.166 19.5153 22.1508 22.5001 25.8327 22.5001Z" stroke="#111111" stroke-width="10" stroke-linecap="round" stroke-linejoin="round"/>
<path d="M42.4993 32.1633C38.2627 36.4867 32.3627 39.1667 25.8327 39.1667C19.3027 39.1667 13.3993 36.4833 9.16602 32.1633" stroke="#111111" stroke-width="10" stroke-linecap="round" stroke-linejoin="round"/>
</svg>
